X:3
T:McPherson's farewell
M:C
L:1/8
Q:"Lively"
S:McGibbon  - Scots Tunes, book III, p. 92  (1762)
Z:AK/Fiddler's Companion
K:G
(D/4E/4F/) | G>AGB T(A/G/A/)B/ A(G/F/) | (G/B/A/)G/ (F/A/G/)F/ T(E2 E)D/E/ |
G>AGB T(A/G/A/)B/ A(G/F/) | G(F/E/) (A/F/)(G/E/) (D2D) :: T(f/e/) | dGeG c>BAT(g/e/) |
dGeG (E2 E)(Tf/e/) | dG e/f/g/B/ Tc>BAB | GF/E/ A/F/G/E/ (D2D) :: (d/4e/4f/) |
g>agb (Ta/g/a/)b/ a(Tg/f/) | (g/b/a/g/) (f/a/g/f/) (Te2 d)(d/4/e/4f/) | g>agb (Ta/g/a/)b/ a(g/f/) |
g(f/e/) (a/f/)(g/e/) (d2d) :: (Tf/e/) | (d/G/)(e/G/) (d/G/)(e/G/) c>B A(Tf/e/) | (d/G/)(e/G/) (f/G/)(g/G/) (E2 E)(Tf/e/) |
d/(g/Tf/e/) (d/c/B/)d/ (c/B/A/)c/ (B/A/)(G/F/) | (G/F/G/)E/ A/F/G/E/ (D2D) :|]

